X:1
T:The Unclouded Day
T:The Unclouded Day
T:Josiah K. Alwood, c.1885
T:J. K. A., c.1885
T:PUBLIC DOMAIN
T:PUBLIC DOMAIN
C:Josiah K. Alwood, c.1885
Z:J. K. A., c.1885
Z:PUBLIC DOMAIN
%%score ( 1 2 ) ( 3 4 )
L:1/8
Q:1/4=100
M:4/4
K:G
V:1 treble nm="Treble"
V:2 treble 
V:3 bass nm="Bass"
V:4 bass 
V:1
 [B,D]3/2 [B,D]/ | [DG]3/2 [DG]/ [DG]3/2 [DG]/ [DG]2 [DB]3/2 [DA]/ | %2
w: 1.~Oh, they|tell me of a home far be-|
w: 2.~Oh, they|tell me of a home where my|
w: 3.~Oh, they|tell me of a King in His|
w: 4.~Oh, they|tell me that He smiles on His|
 [EG]2 [CE]2 [B,D]2 [B,D]3/2 [B,D]/ | %3
w: yond the skies, Oh, they|
w: friends have gone, Oh, they|
w: beau- ty there, And they|
w: chil- dren there, And His|
 (([DG]3/2 [DG]/)) [DG]3/2 [DG]/ (([DG]3/2 [DG]/)) [GB]3/2 [GB]/ | [Fd]6 | D3/2 D/ | %6
w: tell me of a home * far a-|way;|Oh, they|
w: tell me of that land * far a-|way,|Where the|
w: tell me that mine eyes * shall be-|hold|Where He|
w: smile * drives their sor- rows all a-|way;|And they|
 (([DG]3/2 [DG]/)) (([DG]3/2 [DG]/)) [DG]2 [DB]3/2 [DA]/ | %7
w: tell me of a home where no|
w: tree * of * life in e-|
w: sits * on the throne that is|
w: tell me that no tears ev- er|
 [EG]2 (([CE]3/2 [CE]/)) [B,D]2 [Gd]3/2 [Ge]/ | [Gd]3/2 [GB]/ G3/2 [GA]/ [GB]2 (([FA]3/2 [FA]/)) | %9
w: storm clouds * rise, Oh, they|tell me of an un- cloud- ed|
w: ter- nal * bloom Sheds its|fra- grance thro’ the un- cloud- ed|
w: whit- er than snow, In the|cit- y that is made of *|
w: come * a- gain In that|love- ly land of un- cloud- ed|
 G6 ||"^Refrain" [Gd]3/2 [Ge]/ | [Gd]2 [GB]2 G2 [DB]2 | G6 [Gd]>[Ge] | %13
w: day.|Oh, the|land of cloud- less|day, Oh, the|
w: day.||||
w: gold.||||
w: day.||||
 [Gd]2 [GB]3/2 [GA]/ [DG]2 [GB]3/2 [GB]/ | [FA]6 | D3/2 D/ | %16
w: land of an un- cloud- ed|day,|Oh, they|
w: |||
w: |||
w: |||
 [DG]3/2 [DG]/ [DG]3/2 [DG]/ [DG]2 [DB]3/2 [DA]/ | [EG]2 [CE]2 [B,D]2 [Gd]3/2 [Ge]/ | %18
w: tell me of a home where no|storm clouds rise, Oh, they|
w: ||
w: ||
w: ||
 [Gd]3/2 [GB]/ G3/2 [GA]/ [GB]2 [FA]3/2 [FA]/ | G6 |] %20
w: tell me of an un- cloud- ed|day.|
w: ||
w: ||
w: ||
V:2
 x2 | x8 | x8 | x8 | x6 | D3/2 D/ | x8 | x8 | z2 G3/2 z/ z4 | G6 || x2 | z4 G2 z2 | G6 z2 | x8 | %14
 x6 | D3/2 D/ | x8 | x8 | z2 G3/2 z/ z4 | G6 |] %20
V:3
 G,3/2 G,/ | [G,B,]3/2 [G,B,]/ [G,B,]3/2 [G,B,]/ [G,B,]2 G,3/2 G,/ | %2
 [C,G,]2 [E,G,]2 G,2 G,3/2 G,/ | %3
 (([G,B,]3/2 [G,B,]/)) [G,B,]3/2 [G,B,]/ (([G,B,]3/2 [G,B,]/)) [E,B,]3/2 [E,G,]/ | [D,A,]6 | %5
 [D,C]3/2 [D,C]/ | (([G,,B,]3/2 [G,,B,]/)) (([G,,B,]3/2 [G,,B,]/)) [G,,B,]2 [G,,G,]3/2 [G,,G,]/ | %7
 [C,G,]2 (([E,G,]3/2 [E,G,]/)) G,2 [G,B,]3/2 [G,C]/ | %8
 [G,B,]3/2 G,/ [G,B,]3/2 [G,C]/ [D,D]2 (([D,C]3/2 [D,C]/)) | [G,,B,]6 || [G,B,]3/2 [G,C]/ | %11
 [G,B,]2 [G,D]2 [G,B,]2 G,2 | [G,B,]6 [G,B,]>[G,C] | %13
 [G,B,]2 [G,D]3/2 [A,C]/ [G,B,]2 [G,D]3/2 [G,D]/ | [D,D]6 | [D,C]3/2 [D,C]/ | %16
 [G,,B,]3/2 [G,,B,]/ [G,,B,]3/2 [G,,B,]/ [G,,B,]2 [G,,G,]3/2 [G,,G,]/ | %17
 [C,G,]2 [E,G,]2 G,2 [G,B,]3/2 [G,C]/ | [G,B,]3/2 G,/ [G,B,]3/2 [G,C]/ [D,D]2 [D,C]3/2 [D,C]/ | %19
 [G,,B,]6 |] %20
V:4
 G,3/2 G,/ | z4 z2 G,3/2 G,/ | z4 G,2 G,3/2 G,/ | x8 | x6 | x2 | x8 | z4 G,2 z2 | z3/2 G,/ z2 z4 | %9
 x6 || x2 | z4 z2 G,2 | x8 | x8 | x6 | x2 | x8 | z4 G,2 z2 | z3/2 G,/ z2 z4 | x6 |] %20

